X: 1
T: What's A' the Steer, Kimmer?
O: Kerr's 1st
R: strathspey
Z: 2014 John Chambers <jc:trillian.mit.edu>
M: C
L: 1/8
K: G
G>A |\
"G"B2 B>A B2 B<d | "G"B2 B>A B2 B>c |\
"G"d>e d<B d2 d>B | "G"d>e d<B "D7"A2 :|
|: B>A |\
"C"G>A G<E "G"G2 B>A | "C"G>A G<E "G"G2 G>A |\
"G"B<d e>f "C"g2 f>e |1 "G"d<B G>B "D7"A2 :|2 "G"d<B "D7"B>A "G"G2 |]
